icon-themes/elementary_svg/cmd/sc_printpreview.svg

<svg height="16" width="16" xmlns="http://www.w3.org/2000/svg" xmlns:xlink="http://www.w3.org/1999/xlink"><linearGradient id="a" gradientTransform="matrix(.25378586 0 0 .30501865 19.128979 -.685477)" gradientUnits="userSpaceOnUse" x1="-51.786404" x2="-51.786404" y1="50.786446" y2="2.906247"><stop offset="0" stop-opacity=".339506"/><stop offset="1" stop-opacity=".246914"/></linearGradient><linearGradient id="b" gradientTransform="matrix(.24324324 0 0 .35135133 2.162164 -.432428)" gradientUnits="userSpaceOnUse" x1="23.99999" x2="23.99999" y1="6.923065" y2="41.076912"><stop offset="0" stop-color="#fff"/><stop offset="0" stop-color="#fff" stop-opacity=".235294"/><stop offset="1" stop-color="#fff" stop-opacity=".156863"/><stop offset="1" stop-color="#fff" stop-opacity=".392157"/></linearGradient><linearGradient id="c" gradientTransform="matrix(.28571361 0 0 .30419701 1.142873 .232605)" gradientUnits="userSpaceOnUse" x1="25.132275" x2="25.132275" y1=".985206" y2="47.013336"><stop offset="0" stop-color="#f4f4f4"/><stop offset="1" stop-color="#dbdbdb"/></linearGradient><linearGradient id="d" gradientUnits="userSpaceOnUse" x1="10.24264" x2="8.934132" xlink:href="#e" y1="7.905541" y2="9.319755"/><linearGradient id="e"><stop offset="0" stop-color="#fff"/><stop offset="1" stop-color="#4d4d4d"/></linearGradient><radialGradient id="f" cx="5" cy="5" gradientUnits="userSpaceOnUse" r="4" xlink:href="#e"/><path d="m3 1c2.2915074 0 9.999988.0008904 9.999988.0008904l.000012 13.9991096s-6.6666668 0-10 0c0-4.666666 0-9.3333336 0-14z" fill="url(#c)"/><path d="m12.5 14.5h-9.0000001v-13h9.0000001z" fill="none" stroke="url(#b)" stroke-linecap="round"/><path d="m2.4999621.49997396c2.5206756 0 11.0000629.000954 11.0000629.000954l.000013 14.99909804s-7.3333841 0-11.000076 0c0-5.000017 0-10.000035.0000001-15.00005204z" fill="none" stroke="url(#a)" stroke-linejoin="round" stroke-width=".999922"/><g fill-rule="evenodd" transform="translate(3.000003 3.067797)"><path d="m7.2451566 6.5360694c-.050332.0187-.097798.044595-.1405588.076684l-.8495717.5352003c-.1292493.0759259-.2198969.1990381-.2467902.3351753-.0268936.1361372.0128291.2708167.1081442.3666684l5.1408729 5.0156786c.08856.09167.21845.140375.357259.133962.138811-.0064.27343-.06734.37025-.167573l.880666-.910677c.180174-.190375.179332-.465804-.002-.625159l-5.1718799-4.6402024c-.1092112-.1114411-.2782343-.1567863-.4463915-.1197572z" fill="url(#d)"/><path d="m8.0563342 5.0000002c0 1.6879668-1.3683671 3.056334-3.056334 3.056334-1.6879668 0-3.0563344-1.3683672-3.0563344-3.0563341 0-1.6879668 1.3683676-3.0563343 3.0563344-3.0563343 1.6879669 0 3.056334 1.3683675 3.056334 3.0563344z" fill="#fff" fill-opacity=".666667" stroke="url(#f)" stroke-width="1.887332"/></g></svg>

<?xml version="1.0" encoding="UTF-8" standalone="no"?>
<svg
   xmlns:dc="http://purl.org/dc/elements/1.1/"
   xmlns:cc="http://creativecommons.org/ns#"
   xmlns:rdf="http://www.w3.org/1999/02/22-rdf-syntax-ns#"
   xmlns:svg="http://www.w3.org/2000/svg"
   xmlns="http://www.w3.org/2000/svg"
   xmlns:xlink="http://www.w3.org/1999/xlink"
   xmlns:sodipodi="http://sodipodi.sourceforge.net/DTD/sodipodi-0.dtd"
   xmlns:inkscape="http://www.inkscape.org/namespaces/inkscape"
   id="svg3942"
   height="16"
   width="16"
   version="1.1"
   sodipodi:docname="sc_printpreview.svg"
   inkscape:export-filename="/home/rizmut/Dokumen/Rizmut/Github/libreoffice-style-elementary/images_elementary/cmd/sc_printpreview.png"
   inkscape:export-xdpi="96"
   inkscape:export-ydpi="96"
   inkscape:version="0.92.3 (unknown)">
  <sodipodi:namedview
     pagecolor="#ffffff"
     bordercolor="#666666"
     borderopacity="1"
     objecttolerance="10"
     gridtolerance="10"
     guidetolerance="10"
     inkscape:pageopacity="0"
     inkscape:pageshadow="2"
     inkscape:window-width="1366"
     inkscape:window-height="706"
     id="namedview23"
     showgrid="false"
     inkscape:zoom="7.375"
     inkscape:cx="-14.171027"
     inkscape:cy="8.6131337"
     inkscape:window-x="0"
     inkscape:window-y="0"
     inkscape:window-maximized="1"
     inkscape:current-layer="svg3942" />
  <defs
     id="defs3944">
    <linearGradient
       gradientTransform="matrix(0.25378586,0,0,0.30501865,19.128979,-0.68547704)"
       gradientUnits="userSpaceOnUse"
       xlink:href="#linearGradient3104-9"
       id="linearGradient3092"
       y2="2.9062471"
       x2="-51.786404"
       y1="50.786446"
       x1="-51.786404" />
    <linearGradient
       id="linearGradient3104-9">
      <stop
         offset="0"
         style="stop-color:#000000;stop-opacity:0.33950618"
         id="stop3106-5" />
      <stop
         offset="1"
         style="stop-color:#000000;stop-opacity:0.24691358"
         id="stop3108-5" />
    </linearGradient>
    <linearGradient
       gradientTransform="matrix(0.24324324,0,0,0.35135133,2.1621636,-0.43242804)"
       gradientUnits="userSpaceOnUse"
       xlink:href="#linearGradient3977"
       id="linearGradient3095"
       y2="41.076912"
       x2="23.99999"
       y1="6.9230647"
       x1="23.99999" />
    <linearGradient
       id="linearGradient3977">
      <stop
         offset="0"
         style="stop-color:#ffffff;stop-opacity:1"
         id="stop3979" />
      <stop
         offset="0"
         style="stop-color:#ffffff;stop-opacity:0.23529412"
         id="stop3981" />
      <stop
         offset="1"
         style="stop-color:#ffffff;stop-opacity:0.15686275"
         id="stop3983" />
      <stop
         offset="1"
         style="stop-color:#ffffff;stop-opacity:0.39215687"
         id="stop3985" />
    </linearGradient>
    <linearGradient
       id="linearGradient3600">
      <stop
         offset="0"
         style="stop-color:#f4f4f4;stop-opacity:1"
         id="stop3602" />
      <stop
         offset="1"
         style="stop-color:#dbdbdb;stop-opacity:1"
         id="stop3604" />
    </linearGradient>
    <linearGradient
       gradientTransform="matrix(0.28571361,0,0,0.30419701,1.1428727,0.2326048)"
       gradientUnits="userSpaceOnUse"
       xlink:href="#linearGradient3600"
       id="linearGradient3940"
       y2="47.013336"
       x2="25.132275"
       y1="0.98520643"
       x1="25.132275" />
    <linearGradient
       id="a"
       gradientUnits="userSpaceOnUse"
       x1="10.24264"
       x2="8.9341316"
       xlink:href="#b"
       y1="7.9055409"
       y2="9.3197546" />
    <linearGradient
       id="b">
      <stop
         offset="0"
         stop-color="#fff"
         id="stop3" />
      <stop
         offset="1"
         stop-color="#4d4d4d"
         id="stop5" />
    </linearGradient>
    <radialGradient
       id="c"
       cx="5"
       cy="5"
       gradientUnits="userSpaceOnUse"
       r="4"
       xlink:href="#b" />
  </defs>
  <metadata
     id="metadata3947">
    <rdf:RDF>
      <cc:Work
         rdf:about="">
        <dc:format>image/svg+xml</dc:format>
        <dc:type
           rdf:resource="http://purl.org/dc/dcmitype/StillImage" />
        <dc:title></dc:title>
      </cc:Work>
    </rdf:RDF>
  </metadata>
  <g
     id="g1960">
    <path
       style="display:inline;fill:url(#linearGradient3940);fill-opacity:1;stroke:none"
       id="path4160"
       d="m 3,1 c 2.2915074,0 9.999988,8.904e-4 9.999988,8.904e-4 L 13,15 C 13,15 6.3333332,15 3,15 3,10.333334 3,5.6666664 3,1 Z" />
    <path
       style="fill:none;stroke:url(#linearGradient3095);stroke-width:1;stroke-linecap:round;stroke-linejoin:miter;stroke-miterlimit:4;stroke-dasharray:none;stroke-dashoffset:0;stroke-opacity:1"
       id="rect6741-1"
       d="M 12.5,14.5 H 3.4999999 V 1.5 H 12.5 Z" />
    <path
       style="display:inline;fill:none;stroke:url(#linearGradient3092);stroke-width:0.99992192;stroke-linecap:butt;stroke-linejoin:round;stroke-miterlimit:4;stroke-dasharray:none;stroke-dashoffset:0;stroke-opacity:1"
       id="path4160-8"
       d="m 2.4999621,0.49997396 c 2.5206756,0 11.0000629,9.54e-4 11.0000629,9.54e-4 l 1.3e-5,14.99909804 c 0,0 -7.3333841,0 -11.000076,0 0,-5.000017 0,-10.000035 10e-8,-15.00005204 z" />
  </g>
  <g
     transform="translate(3.000003,3.0677972)"
     id="g19">
    <path
       style="fill:url(#a);fill-rule:evenodd"
       inkscape:connector-curvature="0"
       d="m 7.2451566,6.5360694 c -0.050332,0.0187 -0.097798,0.044595 -0.1405588,0.076684 L 6.2550261,7.1479537 C 6.1257768,7.2238796 6.0351292,7.3469918 6.0082359,7.483129 5.9813423,7.6192662 6.021065,7.7539457 6.1163801,7.8497974 l 5.1408729,5.0156786 c 0.08856,0.09167 0.21845,0.140375 0.357259,0.133962 0.138811,-0.0064 0.27343,-0.06734 0.37025,-0.167573 l 0.880666,-0.910677 c 0.180174,-0.190375 0.179332,-0.465804 -0.002,-0.625159 L 7.6915481,6.6558266 C 7.5823369,6.5443855 7.4133138,6.4990403 7.2451566,6.5360694 Z"
       id="path15" />
    <path
       style="fill:#ffffff;fill-opacity:0.66666697;fill-rule:evenodd;stroke:url(#c);stroke-width:1.88733196"
       inkscape:connector-curvature="0"
       d="m 8.0563342,5.0000002 c 0,1.6879668 -1.3683671,3.056334 -3.056334,3.056334 -1.6879668,0 -3.0563344,-1.3683672 -3.0563344,-3.0563341 0,-1.6879668 1.3683676,-3.0563343 3.0563344,-3.0563343 1.6879669,0 3.056334,1.3683675 3.056334,3.0563344 z"
       id="path17" />
  </g>
</svg>
